Dominus_Dark_Funeral/scalable/actions/edit-cut.svg

<svg xmlns="http://www.w3.org/2000/svg" width="24" height="24"><path fill="#e6e6e6" d="M7.64 14.36A3.992 3.992 0 0 0 6 14c-2.21 0-4 1.79-4 4s1.79 4 4 4 4-1.79 4-4c0-.585-.135-1.14-.36-1.64L12 14l2.36 2.36c-.225.5-.36 1.055-.36 1.64 0 2.21 1.79 4 4 4s4-1.79 4-4-1.79-4-4-4c-.585 0-1.14.135-1.64.36L14 12l7-7V2h-1zM8 18a2 2 0 1 1-3.999.001A2 2 0 0 1 8 18zm12 0a2 2 0 1 1-3.999.001A2 2 0 0 1 20 18zm-7.5-6c0 .275-.225.5-.5.5s-.5-.225-.5-.5.225-.5.5-.5.5.225.5.5zM3 5l6 6 2-2-7-7H3z"/></svg>

<?xml version="1.0" encoding="UTF-8" standalone="no"?>
<svg
   xmlns:dc="http://purl.org/dc/elements/1.1/"
   xmlns:cc="http://creativecommons.org/ns#"
   xmlns:rdf="http://www.w3.org/1999/02/22-rdf-syntax-ns#"
   xmlns:svg="http://www.w3.org/2000/svg"
   xmlns="http://www.w3.org/2000/svg"
   xmlns:sodipodi="http://sodipodi.sourceforge.net/DTD/sodipodi-0.dtd"
   xmlns:inkscape="http://www.inkscape.org/namespaces/inkscape"
   width="24"
   height="24"
   version="1.1"
   id="svg4"
   sodipodi:docname="edit-cut.svg"
   inkscape:version="0.92.4 (5da689c313, 2019-01-14)">
  <metadata
     id="metadata10">
    <rdf:RDF>
      <cc:Work
         rdf:about="">
        <dc:format>image/svg+xml</dc:format>
        <dc:type
           rdf:resource="http://purl.org/dc/dcmitype/StillImage" />
        <dc:title></dc:title>
      </cc:Work>
    </rdf:RDF>
  </metadata>
  <defs
     id="defs8" />
  <sodipodi:namedview
     pagecolor="#ffffff"
     bordercolor="#666666"
     borderopacity="1"
     objecttolerance="10"
     gridtolerance="10"
     guidetolerance="10"
     inkscape:pageopacity="0"
     inkscape:pageshadow="2"
     inkscape:window-width="1112"
     inkscape:window-height="480"
     id="namedview6"
     showgrid="false"
     inkscape:zoom="9.8333333"
     inkscape:cx="1.0677966"
     inkscape:cy="12"
     inkscape:window-x="0"
     inkscape:window-y="25"
     inkscape:window-maximized="0"
     inkscape:current-layer="svg4" />
  <path
     d="M 7.64,14.36 A 3.992,3.992 0 0 0 6,14 c -2.21,0 -4,1.79 -4,4 0,2.21 1.79,4 4,4 2.21,0 4,-1.79 4,-4 0,-0.585 -0.135,-1.14 -0.36,-1.64 L 12,14 14.36,16.36 C 14.135,16.86 14,17.415 14,18 c 0,2.21 1.79,4 4,4 2.21,0 4,-1.79 4,-4 0,-2.21 -1.79,-4 -4,-4 -0.585,0 -1.14,0.135 -1.64,0.36 L 14,12 21,5 V 2 H 20 Z M 8,18 A 2,2 0 1 1 4.001,18.001 2,2 0 0 1 8,18 Z m 12,0 A 2,2 0 1 1 16.001,18.001 2,2 0 0 1 20,18 Z m -7.5,-6 c 0,0.275 -0.225,0.5 -0.5,0.5 -0.275,0 -0.5,-0.225 -0.5,-0.5 0,-0.275 0.225,-0.5 0.5,-0.5 0.275,0 0.5,0.225 0.5,0.5 z M 3,5 9,11 11,9 4,2 H 3 Z"
     id="path2"
     inkscape:connector-curvature="0"
     style="fill:#e6e6e6" />
</svg>
